flags/wf.svg

<svg viewBox="0 0 150 100" xmlns="http://www.w3.org/2000/svg"><path d="m0 0h150v100h-150z" fill="#ed2939"/><path d="m0 0h40v40h-40z" fill="#fff"/><path d="m0 0h20v40h-20z" fill="#002395"/><path d="m0 40h60v-40" fill="none" stroke="#fff"/><path d="m105 46-12-12h24zm-4 4-12-12v24zm4 4-12 12h24zm4-4 12-12v24z" fill="#fff"/></svg>

<svg xmlns="http://www.w3.org/2000/svg" viewBox="0 0 150 100">
<path fill="#ED2939" d="M0,0H150V100H0z"/>
<path fill="#FFF" d="M0,0H40V40H0z"/>
<path fill="#002395" d="M0,0H20V40H0z"/>
<path fill="none" stroke="#FFF" d="M0,40H60V0"/>
<path fill="#FFF" d="M105,46 93,34H117zM101,50 89,38V62zM105,54 93,66H117zM109,50 121,38V62z"/>
</svg>
